!!!CDT:
!!!PTL: Vittoria amorosa
!!!PPP: Venice
!!!PPR: Giacomo Vincenzi
!!!PDT: 1596
!!!PUB-format: anthology
!!!RISM: 1596-11
!!!rime: 1177
!!!AGN: Madrigal
!!!SCT: Trm1177a
!!!SCA: Trm1177a
!!!original-voices: 5
!!!extant-voices: 3
!!!complete: N
!!!final: G
!!!COM: Roinci, Luigi
!!!OTL: Che soave rapina
**kern	**text	**kern	**text	**kern	**text
*part3	*part3	*part2	*part2	*part1	*part1
*staff3	*staff3	*staff2	*staff2	*staff1	*staff1
*I"Basso	*	*I"Quinto	*	*I"Alto	*
*I'B	*	*I'V	*	*I'A	*
*oclefF4	*	*oclefC4	*	*oclefC3	*
*clefF4	*	*clefGv2	*	*clefG2	*
*k[b-]	*	*k[b-]	*	*k[b-]	*
*F:	*	*F:	*	*F:	*
*omet(C)	*	*omet(C)	*	*omet(C)	*
*M4/2	*	*M4/2	*	*M4/2	*
=1	=1	=1	=1	=1	=1
0r	.	0r	.	2r	.
.	.	.	.	1f	Che
.	.	.	.	2e	so-
=2	=2	=2	=2	=2	=2
0r	.	0r	.	1f#X	-a-
.	.	.	.	4g	-ve
.	.	.	.	4d	ra-
.	.	.	.	4B-y	-pi-
.	.	.	.	4c	.
=3	=3	=3	=3	=3	=3
0r	.	0r	.	4d	.
.	.	.	.	4e	.
.	.	.	.	2fnXi	.
.	.	.	.	2d	-na,
.	.	.	.	[2d	Che
=4	=4	=4	=4	=4	=4
1r	.	1r	.	2d]	.
.	.	.	.	2c#i	so-
2r	.	2r	.	1d	-a-
[2D	Che	[2F	Che	.	.
=5	=5	=5	=5	=5	=5
2D]	.	2F]	.	1A	-ve
2C#X	so-	2E	so-	.	.
1D	-a-	1F#X	-a-	1r	.
=6	=6	=6	=6	=6	=6
2GG	-ve	4G	-ve	2G	ra-
.	.	4d	ra-	.	.
2GG	ra-	4B-y	-pi-	4d	-pi-
.	.	4A	.	4c	.
4B-y	-pi-	4G	.	4B-y	.
4A	.	4A	.	4c	.
4G	.	[2B-y	.	2d	.
4F	.	.	.	.	.
=7	=7	=7	=7	=7	=7
4E-X	.	2B-]	.	1G	-na,
4D	.	.	.	.	.
1C	.	2c	.	.	.
.	.	[1G	-na	2g	ra-
2BB-y	-na	.	.	4b-y	-pi-
.	.	.	.	4a	.
=8	=8	=8	=8	=8	=8
2r	.	1G]	.	4g	.
.	.	.	.	4f	.
2C	Fu	.	.	2e-X	.
2.G	quel-	2r	.	1d	-na
.	.	2G	Fu	.	.
4A	-la	.	.	.	.
=9	=9	=9	=9	=9	=9
2B-y	del	2.d	quel-	2r	.
2G	mio	.	.	4r	.
.	.	4e	-la	4G	Fu
1F	co-	2f	del	2.c	quel-
.	.	2d	mio	.	.
.	.	.	.	4B-y	-la
=10	=10	=10	=10	=10	=10
1F	-re,	2c	co-	4A	del
.	.	.	.	4F	mio
.	.	2c	-re,	4f	co-
.	.	.	.	8eL	.
.	.	.	.	8dJ	.
1r	.	2r	.	2e	.
.	.	2F	<Fu	2f	-re,
=11	=11	=11	=11	=11	=11
2r	.	2.c	quel-	2r	.
2C	<Fu	.	.	2e	Fu
.	.	4B-y	-la	.	.
2.F	quel-	4A	del	2f	quel-
.	.	4G	mio	.	.
.	.	[2A	co-	2f	-la,
4E	-la	.	.	.	.
=12	=12	=12	=12	=12	=12
2D	del	4A]	.	2r	.
.	.	4D	.	.	.
2G	mio	2B-y	.	2d	Fu
4D	co-	1A	-re>	2.f	quel-
4E	.	.	.	.	.
4F	.	.	.	.	.
4G	.	.	.	4f	-la
=13	=13	=13	=13	=13	=13
2A	.	1r	.	4e	del
.	.	.	.	4d	mio
2AA	.	.	.	2e	co-
1D	-re>	2r	.	1f#X	-re
.	.	2A	A	.	.
=14	=14	=14	=14	=14	=14
2r	.	2.G	l'ar-	2r	.
2G	A	.	.	2g	A
.	.	4A	.	.	.
2.EnX	l'ar-	2BnX	.	2.g#X	l'ar-
.	.	2BnX	-mo-	.	.
4E	-mo-	.	.	4g#X	-mo-
=15	=15	=15	=15	=15	=15
2E	-nia	2BnX	-nia	2g#X	-nia
2BBnX	di-	2BnX	di-	2f#X	di-
2.C	-vi-	[1E	-vi-	[1e	-vi-
4D	.	.	.	.	.
=16	=16	=16	=16	=16	=16
1E	.	1E]	.	1e]	.
1AA	-na,	2E	-na,	1e	-na,
.	.	2A	<A	.	.
=17	=17	=17	=17	=17	=17
2r	.	2.F	l'ar-	2r	.
2F	<A	.	.	2f	A
.	.	4G	.	.	.
2.D	l'ar-	2A	.	2.f#X	l'ar-
.	.	2A	-mo-	.	.
4D	-mo-	.	.	4f#X	-mo-
=18	=18	=18	=18	=18	=18
2D	-nia	1A	-nia	2f#X	-nia
2AA	di-	.	.	2e	di-
2.BB-y	-vi-	2D	di-	[1d	-vi-
.	.	[2d	-vi-	.	.
4C	.	.	.	.	.
=19	=19	=19	=19	=19	=19
1D	.	4d]	.	1d]	.
.	.	8cL	.	.	.
.	.	8B-yJ	.	.	.
.	.	2A	.	.	.
1GG	-na,>	2BnX	-na,>	2d	-na,
.	.	2r	.	2b-y	Men-
=20	=20	=20	=20	=20	=20
0r	.	0r	.	4a	-tre
.	.	.	.	4a	scio-
.	.	.	.	4g	-gliea
.	.	.	.	4g	sì
.	.	.	.	4.f	va-
.	.	.	.	8e	-ghi
.	.	.	.	4f#X	spor-
.	.	.	.	4g	-ti A-
=21	=21	=21	=21	=21	=21
1r	.	1r	.	4f#X	-mo-
.	.	.	.	2g	-re,
.	.	.	.	4f#X	A-
2r	.	2r	.	2g	-mo-
2G	Men-	2B-y	Men-	2d	-re,
=22	=22	=22	=22	=22	=22
4F	-tre	4A	-tre	0r	.
4F	scio-	4A	scio-	.	.
4E-X	-gliea	4G	-gliea	.	.
4E-i	sì	4G	sì	.	.
4.D	va-	4.F	va-	.	.
8C#X	-ghi	8E	-ghi	.	.
4D	spir-	4F	spir-	.	.
4E-i	-ti A-	4G	-ti A-	.	.
=23	=23	=23	=23	=23	=23
1F	-mo-	4A	-mo-	4r	.
.	.	2B-y	-re,	4f	A-
.	.	.	.	2f	-mo-
.	.	4A	sì	.	.
2BB-y	-re,	4B-y	va-	2f	-re,
.	.	4d	-ghi	.	.
2r	.	4.g	spir-	4r	.
.	.	.	.	4b-y	si
.	.	8f	.	.	.
=24	=24	=24	=24	=24	=24
4r	.	8eL	.	4.a	va-
.	.	8dJ	.	.	.
4A	si	4e	.	.	.
.	.	.	.	8g	.
4B-y	va-	2d	-ti	8fL	.
.	.	.	.	8eJ	.
4B-y	-ghi	.	.	4d	.
4G	spir-	4r	.	4d	-ghi
4GG	-ti A-	4d	A-	4g	spir-
2D	-mo-	2d	-mo-	2f#X	-ti A-
=25	=25	=25	=25	=25	=25
2GG	-re!	1d	-re!	2g	-mo-
4r	.	.	.	2g	-re!
4G	On-	.	.	.	.
4.F	-de	1r	.	1r	.
8F	fra	.	.	.	.
4F	me	.	.	.	.
4E	di-	.	.	.	.
=26	=26	=26	=26	=26	=26
2D	-cea	4r	.	4r	.
.	.	4d	da	4d	da
2r	.	4c#X	me	4e	me
.	.	4d	di-	4f	di-
1r	.	4A	-vi-	4e	-vi-
.	.	8D	-so,	8f	-so,
.	.	8f	<da	8d	<da
.	.	4e	me	4c#X	me
.	.	4d	di-	4d	di-
=27	=27	=27	=27	=27	=27
4r	.	4c#X	-vi-	2A	-vi-
4D	da	4d	-so,>	.	.
4A	me,	4r	.	4A	-so,>
4D	da	4A	<da	4f	<da
4C#X	me	4A	me	4e	me
4D	di-	4A	di-	4d	di-
2AA	-vi-	2A	-vi-	4d	-vi-
.	.	.	.	4c#X	.
=28	=28	=28	=28	=28	=28
1D	-so:	2A	-so:>	1d	-so:>
.	.	2r	.	.	.
1r	.	4r	.	2r	.
.	.	4d	Se	.	.
.	.	4.f	que-	4r	.
.	.	.	.	4b-y	il
.	.	8f	-st'è il	.	.
=29	=29	=29	=29	=29	=29
1r	.	4f	Pa-	8b-yL	Pa-
.	.	.	.	8a	.
.	.	4e	-ra-	8g	.
.	.	.	.	8fJ	.
.	.	2d	-di-	4g	.
.	.	.	.	4g	-ra
2r	.	2c	-so,	4.g	di-
.	.	.	.	8f	.
2C	Se	4r	.	8eL	.
.	.	.	.	8dJ	.
.	.	4G	<Se	4e	.
=30	=30	=30	=30	=30	=30
2F	que-	2A	que-	2f	-so,
4G	-st'è il	4BnX	-st'è il	2r	.
2A	Pa-	2c	Pa-	.	.
.	.	.	.	2r	.
4B-y	-ra-	4d	-ra-	.	.
2F	-di-	2c	-di-	4r	.
.	.	.	.	4c	il
=31	=31	=31	=31	=31	=31
4BB-y	-so,	2B-i	-so,>	8d	Pa-
.	.	.	.	8e	-ra-
4BB-y	il	.	.	4f	-di-
8C	Pa-	4r	.	4e	-so,
8D	-ra-	.	.	.	.
4E-X	-di-	4G	il	4g	<il
4D	-so,	8A	Pa-	8f	Pa-
.	.	8B-y	-ra-	8f	-ra-
8EnXi	<Pa-	4.c	-di-	4e	-di-
8F	-ra-	.	.	.	.
2G	-di-	.	.	4d	-so,>
.	.	16B-yL	.	.	.
.	.	16AJ	.	.	.
.	.	4BnX	.	4d	<il
=32	=32	=32	=32	=32	=32
2F	-so,>	4c	-so,	8f	Pa-
.	.	.	.	8g	-ra-
.	.	4c	<il	4a	-di-
4r	.	8d	Pa-	2f	-so,>
.	.	8e	-ra-	.	.
4D	<il	4f	-di-	.	.
8G	Pa-	2d	-so,>	4r	.
8A	-ra-	.	.	.	.
4B-y	-di-	.	.	4g	il
2A	.	2r	.	8a	Pa-
.	.	.	.	8a	-ra-
.	.	.	.	4a	-di-
=33	=33	=33	=33	=33	=33
1D	-so,>	2r	.	2f#X	-so,
.	.	4r	.	2r	.
.	.	2d	Più	.	.
1r	.	.	.	2a	Più
.	.	4.c	dol-	.	.
.	.	.	.	4.g	dol-
.	.	8B-y	-ci	.	.
.	.	8B-y	che	.	.
.	.	8A	fra	8fnXi	-ci
=34	=34	=34	=34	=34	=34
0r	.	2B-y	l'ac-	8f	che
.	.	.	.	8e	fra
.	.	.	.	2f	l'ac-
.	.	4F	-que e	.	.
.	.	8G	fra	4d	-que e
.	.	8A	l'a-	.	.
.	.	8B-yL	-re-	8g	fra
.	.	8c	.	8a	l'a-
.	.	8d	.	4b-y	-re-
.	.	8eJ	.	.	.
.	.	2f	.	2a	-ne,
=35	=35	=35	=35	=35	=35
2F	Più	2c	-ne,	0r	.
4.E-X	dol-	2r	.	.	.
8D	-ci	.	.	.	.
8D	che	1r	.	.	.
8C#X	fra	.	.	.	.
2D	l'ac-	.	.	.	.
4AA	-que e	.	.	.	.
=36	=36	=36	=36	=36	=36
8BB-y	fra	4B-y	e	4r	.
8CnXi	l'a-	.	.	.	.
4D	-re-	8A	fra	4f	e
.	.	8B-y	l'a-	.	.
4C	-ne,	4c	-re-	8f	fra
.	.	.	.	8f	l'a-
4C	e	4c	-ne,	4e	-re-
8F	fra	4r	.	4f	-ne,
8G	l'a-	.	.	.	.
4A	-re-	4c	<e	4f	<e
4G	-ne,	8d	fra	2g	fra
.	.	8e	l'a-	.	.
4G	<e	4d	-re-	.	.
=37	=37	=37	=37	=37	=37
4F	fra	4f	-ne,	4c	l'a-
4C	l'a-	4e-X	l'a-	2g	-re-
2D	-re-	2d	-re-	.	.
.	.	.	.	4f#X	.
2GG	-ne>	4d	-ne	4g	-ne>
.	.	4d	In	4g	In
4r	.	2g	ciel	2b-y	ciel,
4G	In	.	.	.	.
=38	=38	=38	=38	=38	=38
2B-y	ciel,	4r	.	4r	.
.	.	4G	son	4b-y	In
2r	.	8B-y	le	4.b-y	ciel
.	.	8c	si-	.	.
.	.	4d	-re-	.	.
.	.	.	.	8a	son
2G	In	2d	-ne,	8g	le
.	.	.	.	8fnXi	si-
.	.	.	.	4g	-re-
4.B-y	ciel	4r	.	2f	-ne,
.	.	4d	In	.	.
8B-y	son	.	.	.	.
=39	=39	=39	=39	=39	=39
8A	le	4.f	ciel	4r	.
8A	si-	.	.	.	.
4B-y	-re-	.	.	4f	son
.	.	8f	son	.	.
4G	-ne,	8e	le	4g	le
.	.	8e	si-	.	.
4F	son	4f	-re-	4a	si-
4G	le	4d	-ne	2g	-re-
4C	si-	4c	si-	.	.
2G	-re-	2d	-re-	2g	-ne,
=40	=40	=40	=40	=40	=40
2C	-ne,	2e	-ne,	4r	.
.	.	.	.	4g	In
2r	.	2r	.	4.a	ciel
.	.	.	.	8a	son
1r	.	1r	.	8g	le
.	.	.	.	8g	si-
.	.	.	.	4a	-re-
.	.	.	.	4f	-re,
.	.	.	.	4e	son
=41	=41	=41	=41	=41	=41
2r	.	2r	.	8f#X	le
.	.	.	.	8f#i	si-
.	.	.	.	2g	-re-
2D	In	4r	.	.	.
.	.	4A	In	4f#X	.
4.G	ciel	4.B-y	ciel	2g	-ne,
8G	son	8B-y	son	.	.
8F#X	le	8A	le	4r	.
8F#i	si-	8A	si-	.	.
4G	-re-	4B-y	-re-	4d	In
=42	=42	=42	=42	=42	=42
4E	-ne,	4G	-ne,	4.g	ciel
4D	son	8r	.	.	.
.	.	8d	son	8f#X	son
8G	le	8d	le	8g	le
8B-y	si-	8d	si-	8g	si-
4A	-re-	4e	-re-	4a	-re-
2D	-ne,	1f	-ne,	2a	-ne,
2r	.	.	.	4r	.
.	.	.	.	4d	<In
=43	=43	=43	=43	=43	=43
2r	.	2r	.	4.fnXi	ciel
.	.	.	.	8e	son
2GG	In	4r	.	8d	le
.	.	.	.	8d	si-
.	.	4d	In	4d	-re-
4.D	ciel	4.f	ciel	2d	-ne,>
8D	son	8f	son	.	.
8C#X	le	8f	le	4r	.
8C#i	si-	8e	si-	.	.
[4D	-re-	[4f	-re-	4d	In
=44	=44	=44	=44	=44	=44
8D]L	.	8f]L	.	4.d	ciel
8CnXiJ	.	8eJ	.	.	.
4BB-y	.	2d	.	.	.
.	.	.	.	8e	son
4AA	-ne,	.	.	8f	le
.	.	.	.	8f	si-
4A	<In	4c#X	-ne,	4e	-re-
4.B-y	ciel	4r	.	4d	-ne,
.	.	4d	son	4g	<In
8B-y	son	.	.	.	.
8B-y	le	8e	le	4a	ciel
8A	si-	8f	si-	.	.
4B-y	-re-	4d	-re-	4f	son
=45	=45	=45	=45	=45	=45
4G	.	4.d	-ne,	4g	le
4GG	.	.	.	4d	si-
.	.	8G	son	.	.
2D	.	8A	le	2d	-re-
.	.	8D	si-	.	.
.	.	4cnXi	-re-	.	.
1GGl	-ne!>	1BnXl	-ne!	1dl	-ne!>
==	==	==	==	==	==
*-	*-	*-	*-	*-	*-
!!!system-decoration: [*]
!!!RDF**kern: i = editorial accidental
!!!RDF**kern: l = terminal long
!!!ENC: Emiliano Ricciardi
!!!END: 2019/08/08
!!!EED: Ricciardi, Emiliano
!!!EEV: 2019/08/08
!!!YEC: Copyright 2018 Emiliano Ricciardi, All Rights Reserved
!!!ONB: Translated from MusicXML on 2019/08/08 and edited by Craig Stuart Sapp
!!@@BEGIN:	VERSEDATA
!!@SOLERTI:	1177
!!@CATALOGNUM:	Trm1177
!!@LAST_MODIFIED: 2020/07/12
!!@TITLE:		Che soave rapina
!!@GENRE:		madrigale
!!@MANUSRC:	E<sub>1</sub>, F<sub>2</sub>, V<sub>13/E1</sub>
!!@PRINTSRC:	27, 48, 54, 70, 141, 145, 166, 169
!!@@BEGIN:	VERSES
!!@ABOUTIT:	[A la medesima? (i.e., Livia d'Arco, see Rime 1171-1176)]
!!@ABOUTEN:	[To the same lady? (i.e., Livia d'Arco, see Rime 1171-1176)]
!!@EDITOR:	Solerti, Angelo
!!@EDITION_TITLE: Le Rime di Torquato Tasso
!!@EDITION_LOC:	Bologna
!!@EDITION_PUB:	Romagnoli-Dall’Acqua
!!@EDITION_DATE:  1898-1902
!!@EDITION_VOL:	4
!!@EDITION_PAGE:  213
!!@TRANSLATOR:	Emiliano Ricciardi and Amyrose McCue Gill
!!@VERSE:
!!	Che soave rapina
!!	Fu quella del mio core
!!	A l'armonìa divina,
!!	Mentre sciogliea sì vaghi spirti Amore!
!!	Onde fra me dicea da me diviso:
!!	Se questo è il paradiso,
!!	Più dolci che ne l'acque e fra l'arene
!!	In ciel son le sirene!
!!@TVERSE:
!!	What a pleasing theft
!!	Was that of my heart
!!	To divine harmony,
!!	While Love dissolved such lovely spirits!
!!	Hence I said to myself, from myself parted:
!!	If this is paradise,
!!	Sweeter than in the waters and between the shores
!!	In heaven are the sirens!
!!@@END:		VERSES
!!@OTHER_CRIT_ED:   None
!!@ATTRIBUTION_ABOUT:	Secure
!!	<br>
!!	Among other sources, this sonnet appears in the authoritative manuscript It. 385, Biblioteca Estense Universitaria, Modena, Italy (see Literary Sources).
!!@DATING:	Mid-1580s?
!!@DEDICATEE:	d'Arco, Livia ?
!!@COMMENTARY:
!!@@END:		VERSEDATA
!!@@BEGIN:	SETTING
!!@CATALOGNUM:	Trm1177a
!!@RIMETITLE:	Che soave rapina
!!@SOLERTI:	1177
!!@COMPOSER:	Roinci, Luigi
!!@PRINCEPSFORMAT: anthology
!!@PRINCEPSTITLE:	Vittoria amorosa
!!@PRINCEPSLOC:	Venetia
!!@NORMLOC:	Venice
!!@NORMPUB:	Giacomo Vincenzi
!!@NORMPUBSHORT:	G. Vincenzi
!!@PRINCEPSPUB:	Vincenti
!!@PRINCEPSYEAR:	1596
!!@PRINCEPSRISM:	1596-11
!!@REPRINTS:	
!!@OVOICES:	5
!!@EXTANTVOICES:	3
!!@PARTBOOKS:	
!!@EXTPARTBOOKS:	
!!@OCLEFS:	C3,C4,F4
!!@OMENSURATION:	C
!!@OKEYSIG:	b-
!!@FINAL:	G
!!@TIMPEDITOR:	Ricciardi, Emiliano
!!@NOTE:		
!!@@END:		SETTING
